X: 3
T: Missa Ave regina celorum / Credo
N: Derived from Duf1002c-Missa_Ave_regina_celorum-Credo.krn
C: Guillaume Du Fay
%%abc-version 2.0
%%abcx-abcm2ps-target-version 5.9.1 (29 Sep 2008)
%%abc-creator hum2abc beta
%%abcx-conversion-date 2019/02/16 20:31:46
%%abc-edited-by Alejandro Planchart, Jesse Rodin
%%abc-edited-by Alejandro Planchart
%%abcx-initial-encoding-date 2014/07/24/
%%humdrum-veritas 3035819372
%%humdrum-veritas-data 1627075110
%%linebreak <none>
%%barnumbers 0
L: 1/4
M: 3/1
Q: 1/2=120
%%staves [1 2 3 4]
V: 1 clef=treble
V: 2 clef=treble-8
V: 3 clef=treble-8
V: 4 clef=bass
K: C
[V:1] c6B2A4 | 
[V:2] f8c4 | 
[V:3] z12 | 
[V:4] F,8F,4 | 
[V:1] G4F2A3GE2 | 
[V:2] c4d3cA4 | 
[V:3] z12 | 
[V:4] _E,4D,6C,2 | 
[V:1] F4G6=E2 | 
[V:2] A4G8 | 
[V:3] z12 | 
[V:4] D,4_E,6C,2 | 
[V:1] E4z2A2G2E2 | 
[V:2] z2g4f2e4 | 
[V:3] c8c4 | 
[V:4] C,12 | 
[V:1] F2D2F2G2A4 | 
[V:2] d2f4e2d4 | 
[V:3] _B4A6G2 | 
[V:4] D,8D,2=E,2 | 
[V:1] A4D4G4- | 
[V:2] c4g3fd4 | 
[V:3] A4_B6G2- | 
[V:4] F,4G,8 | 
[V:1] G2c2B2A2BAGF | 
[V:2] e4c4[d4f4] | 
[V:3] G2A2G2c4=B2 | 
[V:4] C,4E,2F,2D,4 | 
[V:1] E12 | 
[V:2] [G4g4]z4g4 | 
[V:3] c12- | 
[V:4] C,12- | 
[V:1] z4G4G4 | 
[V:2] g6e4e2 | 
[V:3] c12 | 
[V:4] C,12 | 
[V:1] A2A2A4A2A2 | 
[V:2] c4f8 | 
[V:3] z12 | 
[V:4] F,12 | 
[V:1] G4c6B2 | 
[V:2] e2f2g8 | 
[V:3] c12- | 
[V:4] C,12 | 
[V:1] A4G4G4 | 
[V:2] z4G4G4 | 
[V:3] c12 | 
[V:4] F,4E,8 | 
[V:1] F6G2F3E | 
[V:2] A4A2B4B2 | 
[V:3] d12 | 
[V:4] D,12 | 
[V:1] G8z4 | 
[V:2] c8g4 | 
[V:3] e12 | 
[V:4] C,12 | 
[V:1] G4c4c2d2 | 
[V:2] e2f2g4a4 | 
[V:3] e12- | 
[V:4] C8A,2B,2 | 
[V:1] e6e3dc2 | 
[V:2] g2g2g4z4 | 
[V:3] e12 | 
[V:4] C8C4 | 
[V:1] B8B4 | 
[V:2] g2g2g4g4 | 
[V:3] d4e8 | 
[V:4] G,8G,4 | 
[V:1] A2d4c2A2B2 | 
[V:2] a8f4 | 
[V:3] f12 | 
[V:4] F,6E,2D,4 | 
[V:1] c4c2c2c4 | 
[V:2] g4g4g4 | 
[V:3] e12 | 
[V:4] C,12 | 
[V:1] B2d4c2B4 | 
[V:2] z4g4g4 | 
[V:3] d12 | 
[V:4] G,12 | 
[V:1] z2e4c2d4 | 
[V:2] e4a4d2g2 | 
[V:3] c8_B4 | 
[V:4] A,8G,4 | 
[V:1] c2A2c2B4A2 | 
[V:2] e2f2g8 | 
[V:3] c4d8 | 
[V:4] A,4G,8 | 
[V:1] c6A2c2B2 | 
[V:2] z2e4f2g4 | 
[V:3] c12- | 
[V:4] C,12- | 
[V:1] G4z4z4 | 
[V:2] e4c4[G4g4] | 
[V:3] c12 | 
[V:4] C,12- | 
[V:1] C3DE2F2G4 | 
[V:2] z4z4c3d | 
[V:3] z12 | 
[V:4] C,12 | 
[V:1] C3DE2C4B,2 | 
[V:2] e2f2g4c2d2 | 
[V:3] z12 | 
[V:4] z12 | 
[V:1] C2E2D4C4 | 
[V:2] e2c4B2c2e2 | 
[V:3] z12 | 
[V:4] z12 | 
[V:1] z2F2E2G2A2A2 | 
[V:2] d4c4z2f2 | 
[V:3] z12 | 
[V:4] z12 | 
[V:1] G3EF4E4 | 
[V:2] e2g2a2a2g3e | 
[V:3] z12 | 
[V:4] z12 | 
[V:1] z2D2E2G2F3E | 
[V:2] f4e4z2d2 | 
[V:3] z12 | 
[V:4] z12 | 
[V:1] C4z4c4 | 
[V:2] e2g2f3ec4 | 
[V:3] z12 | 
[V:4] z12 | 
[V:1] B2B2A2A2G4 | 
[V:2] z4c4B2B2 | 
[V:3] z12 | 
[V:4] z12 | 
[V:1] c4B2G2A4 | 
[V:2] A2A2G4c4 | 
[V:3] z12 | 
[V:4] z12 | 
[V:1] G2G4^F2G4 | 
[V:2] B2G2A4G4 | 
[V:3] z12 | 
[V:4] z12 | 
[V:1] z4c2B2c2d2 | 
[V:2] c2B2c2d2e2d2 | 
[V:3] z12 | 
[V:4] z12 | 
[V:1] e2d2B2e3dc2- | 
[V:2] g3fg2c2e2f2 | 
[V:3] z12 | 
[V:4] z12 | 
[V:1] c2B2c2d2B3A | 
[V:2] d4c2B2d4 | 
[V:3] z12 | 
[V:4] z12 | 
[V:1] c12 | 
[V:2] c8z4 | 
[V:3] z12 | 
[V:4] z12 | 
[V:1] z12 | 
[V:2] e3fg2a2d2e2 | 
[V:3] c8_B4 | 
[V:4] C,3D,E,2F,2G,4 | 
[V:1] z12 | 
[V:2] f4d3cd2e2 | 
[V:3] A4_B4G4- | 
[V:4] F,2D,4G,4C,2- | 
[V:1] z12 | 
[V:2] c4g3ef4 | 
[V:3] G2A2G2c4=B2 | 
[V:4] C,2F,2E,2C,2D,4 | 
[V:1] z12 | 
[V:2] e2g4a2g2e2 | 
[V:3] c12 | 
[V:4] C,8C,4 | 
[V:1] c8B2A2 | 
[V:2] z2a3gg4f2 | 
[V:3] c8d4 | 
[V:4] F,6E,2D,4 | 
[V:1] c8c2d2 | 
[V:2] g4g4g4 | 
[V:3] e4e8 | 
[V:4] C,12 | 
[V:1] e6c4c2 | 
[V:2] e2f2g4c4 | 
[V:3] z4e8 | 
[V:4] C8A,4 | 
[V:1] d4c4B4 | 
[V:2] G4z2A2B4 | 
[V:3] d4e6d2 | 
[V:4] B,4C2A,2G,4 | 
[V:1] A4A2c4d2 | 
[V:2] c12 | 
[V:3] f12 | 
[V:4] F,8A,2B,2 | 
[V:1] e6d2c4 | 
[V:2] z4g8 | 
[V:3] e12 | 
[V:4] C8C4 | 
[V:1] B2d3cc2B3A | 
[V:2] g4g2g2g4 | 
[V:3] d12 | 
[V:4] G,8G,4 | 
[V:1] c2z2G4c4 | 
[V:2] z2e2d2e4c2 | 
[V:3] c4=B2c4A2 | 
[V:4] C,4z2C,6 | 
[V:1] B2A3GE2F2G2 | 
[V:2] d2A2c4d4 | 
[V:3] =B2c4G2A2=B2 | 
[V:4] G,2F,2E,4D,4 | 
[V:1] E2[C4G4]c3BBA | 
[V:2] G4c4z2d2 | 
[V:3] c3de2f2d4 | 
[V:4] C,8G,4 | 
[V:1] c12 ||  
[V:2] e3ce2f2g4 ||  
[V:3] c12 ||  
[V:4] C,12 ||  
[V:1]  [K:C] [K:clef=treble][M:3/1]z12 | 
[V:2]  [K:C] [K:clef=treble-8][M:3/1]G6A2B4 | 
[V:3]  [K:C] [K:clef=treble-8][M:3/1]z12 | 
[V:4]  [K:C] [K:clef=bass][M:3/1]z12 | 
[V:1] G6A2B4 | 
[V:2] c4B2c2d4 | 
[V:3] z12 | 
[V:4] z12 | 
[V:1] c4B2c2d4 | 
[V:2] c4g2e2f2g2 | 
[V:3] z12 | 
[V:4] z12 | 
[V:1] c4B2A4G2 | 
[V:2] a4g4f2g2- | 
[V:3] z12 | 
[V:4] z12 | 
[V:1] B2c2d4e2f2 | 
[V:2] g2e2f2g4d2 | 
[V:3] z12 | 
[V:4] z12 | 
[V:1] e2d3cc4B2 | 
[V:2] e2f2g2c2d4 | 
[V:3] z12 | 
[V:4] z12 | 
[V:1] c8z4 | 
[V:2] c12 | 
[V:3] z12 | 
[V:4] z12 | 
[V:1] c3BA2G4c2- | 
[V:2] z4z4c3B | 
[V:3] z12 | 
[V:4] z12 | 
[V:1] c2B2d2e2c2d2- | 
[V:2] A2G4c4B2 | 
[V:3] z12 | 
[V:4] z12 | 
[V:1] d2G4FGA2_B2 | 
[V:2] d2e2c2d4G2- | 
[V:3] z12 | 
[V:4] z12 | 
[V:1] G2z2F2G2_B2Ac- | 
[V:2] G2FGA2_B2G2z2 | 
[V:3] z12 | 
[V:4] z12 | 
[V:1] cd_B3GA4G2- | 
[V:2] F2G2_B2Ac2d_B2 | 
[V:3] z12 | 
[V:4] z12 | 
[V:1] G2E2F2G2A_B2c | 
[V:2] G2A4G2z2E2 | 
[V:3] z12 | 
[V:4] z12 | 
[V:1] A2G2z2d2c2d2 | 
[V:2] F2G2A_B2cA2G2 | 
[V:3] z12 | 
[V:4] z12 | 
[V:1] _B2A3GG4^F2 | 
[V:2] d2c2d2_B2A4 | 
[V:3] z12 | 
[V:4] z12 | 
[V:1] G8z2c2 | 
[V:2] G4z2c2Bc2d | 
[V:3] z12 | 
[V:4] z12 | 
[V:1] Bc2de2f3edc | 
[V:2] e2f2g2a2f2g2- | 
[V:3] z12 | 
[V:4] z12 | 
[V:1] e2d3cc2A2B2 | 
[V:2] g2GABA/B/c2d3e | 
[V:3] z12 | 
[V:4] z12 | 
[V:1] zcdcAGc4B2 | 
[V:2] c2f3ge2d4 | 
[V:3] z12 | 
[V:4] z12 | 
[V:1] c12 | 
[V:2] c8z4 | 
[V:3] z12 | 
[V:4] C,12- | 
[V:1] z12 | 
[V:2] g4g4g4 | 
[V:3] c12- | 
[V:4] C,12 | 
[V:1] A4A4A4 | 
[V:2] f8f4 | 
[V:3] c12- | 
[V:4] F,12 | 
[V:1] G4c8 | 
[V:2] e8g4 | 
[V:3] c12 | 
[V:4] C,12 | 
[V:1] B4d4d4 | 
[V:2] g6f2d4 | 
[V:3] d12 | 
[V:4] G,6A,2B,4 | 
[V:1] G3AB3cA4- | 
[V:2] c4B4c4 | 
[V:3] e8f4- | 
[V:4] C2A,2G,4F,4 | 
[V:1] A4A4F4 | 
[V:2] d2e2A4B3A | 
[V:3] f2e2d2c2d4 | 
[V:4] D,2C,2F,2E,2D,4 | 
[V:1] G8c4 | 
[V:2] c8z4 | 
[V:3] e12 | 
[V:4] C,12 | 
[V:1] B4c8 | 
[V:2] e8e4 | 
[V:3] g12 | 
[V:4] z4C,8 | 
[V:1] A4A4B4 | 
[V:2] d4d8 | 
[V:3] f12 | 
[V:4] D,8D,4 | 
[V:1] c12 | 
[V:2] G8A4 | 
[V:3] e12 | 
[V:4] C,12 | 
[V:1] z4d8 | 
[V:2] B12 | 
[V:3] d12 | 
[V:4] B,,12 | 
[V:1] e6d2c4 | 
[V:2] G8g4 | 
[V:3] c12 | 
[V:4] C,12 | 
[V:1] B3cd2e2d2B2- | 
[V:2] g4g8 | 
[V:3] d4=B2c2d4 | 
[V:4] G,12 | 
[V:1] B2A2G2c4B2 | 
[V:2] g8g4 | 
[V:3] G2c2=B2e2d4 | 
[V:4] E,2F,2G,2C,2G,4 | 
[V:1] c12 | 
[V:2] e2f2g4z4 | 
[V:3] c12 | 
[V:4] C,12 | 
[V:1] z12 | 
[V:2] e4d2e2f2g2 | 
[V:3] z12 | 
[V:4] C4B,2A,4G,2- | 
[V:1] z12 | 
[V:2] e2d3cc4B2 | 
[V:3] z12 | 
[V:4] G,2F,2G,2E,2D,4 | 
[V:1] E4E2G2Ac2B | 
[V:2] c2G2c3BA2G2 | 
[V:3] z12 | 
[V:4] C,12 | 
[V:1] G4c2B3cd2 | 
[V:2] z2c4d2e2f2- | 
[V:3] z12 | 
[V:4] z12 | 
[V:1] e2d2B2c2BA3/G/F | 
[V:2] feg3fe2d4 | 
[V:3] z12 | 
[V:4] z12 | 
[V:1] E4z4c4 | 
[V:2] c2z2g4f2a2- | 
[V:3] c8c4 | 
[V:4] C,8F,4- | 
[V:1] c4A3Bc4 | 
[V:2] age4g2^f3e | 
[V:3] A6G2A4 | 
[V:4] F,2C4B,2A,4 | 
[V:1] d4_B3GA4 | 
[V:2] g4z4z4 | 
[V:3] _B4G2d4c2 | 
[V:4] G,8F,4 | 
[V:1] G4A4^F3E | 
[V:2] d4d4d4 | 
[V:3] _B4A8 | 
[V:4] G,4D,8 | 
[V:1] G4z4B4 | 
[V:2] B2c2d4G4 | 
[V:3] G8z4 | 
[V:4] D4B,2C2D4 | 
[V:1] B4A2A3GF2 | 
[V:2] g4f8 | 
[V:3] G4A6=B2 | 
[V:4] z4D,8 | 
[V:1] E4G4A2G2 | 
[V:2] g4e4f2e2- | 
[V:3] c12- | 
[V:4] C,8F,2G,2 | 
[V:1] c6B4A2 | 
[V:2] e2f2g4z4 | 
[V:3] c4d8 | 
[V:4] A,4G,8 | 
[V:1] c4z2c4c2 | 
[V:2] e4f2g2a4 | 
[V:3] c8c4 | 
[V:4] A,4F,8 | 
[V:1] A4c2B2G4 | 
[V:2] f4g4g4 | 
[V:3] d4e6d2 | 
[V:4] z4C8 | 
[V:1] z2c4d2e2c2 | 
[V:2] a4a4g4 | 
[V:3] f8e4 | 
[V:4] F,4A,2B,2C4 | 
[V:1] B4e4d2B2 | 
[V:2] g4e4f2e2- | 
[V:3] d4g4f2g2- | 
[V:4] G,4z2C,2D,2E,2 | 
[V:1] c6A2BAGF | 
[V:2] efg2a4f4 | 
[V:3] g2e2c2d3A=B2 | 
[V:4] C,4F,4D,4 | 
[V:1] E2G4c3BBA | 
[V:2] g2e4g6 | 
[V:3] c2G2c2e2d4 | 
[V:4] C,8G,4 | 
[V:1] c12 ||  
[V:2] g4e2f2g4 ||  
[V:3] c12 ||  
[V:4] C,12 ||  
[V:1]  [K:C] [K:clef=treble][M:4/2]z8 | 
[V:2]  [K:C] [K:clef=treble-8][M:4/2]G8 | 
[V:3]  [K:C] [K:clef=treble-8][M:4/2]z8 | 
[V:4]  [K:C] [K:clef=bass][M:4/2]C,4E,4 | 
[V:1] z8 | 
[V:2] A8 | 
[V:3] z8 | 
[V:4] D,4F,4 | 
[V:1] G8 | 
[V:2] B8 | 
[V:3] z8 | 
[V:4] E,4G,4 | 
[V:1] A8 | 
[V:2] c8 | 
[V:3] z8 | 
[V:4] F,4A,4 | 
[V:1] B8 | 
[V:2] d8 | 
[V:3] z8 | 
[V:4] G,8 | 
[V:1] c8 | 
[V:2] c4e4 | 
[V:3] z8 | 
[V:4] C,8 | 
[V:1] d8 | 
[V:2] d2f4e2 | 
[V:3] z8 | 
[V:4] z4B,,4 | 
[V:1] e8 | 
[V:2] c4c4 | 
[V:3] z8 | 
[V:4] C,4E,4 | 
[V:1] f6ed | 
[V:2] d4d4 | 
[V:3] z8 | 
[V:4] D,4B,,4 | 
[V:1] c4c4 | 
[V:2] e8 | 
[V:3] z8 | 
[V:4] C,4A,,4 | 
[V:1] d4d4 | 
[V:2] d4B4 | 
[V:3] z8 | 
[V:4] B,,4D,4 | 
[V:1] e8 | 
[V:2] c8 | 
[V:3] z8 | 
[V:4] C,8 | 
[V:1] d4B4 | 
[V:2] d6c2 | 
[V:3] z8 | 
[V:4] G,8 | 
[V:1] c4d3c | 
[V:2] A4G4 | 
[V:3] z8 | 
[V:4] A,4B,4 | 
[V:1] A2G2c4- | 
[V:2] c4e4 | 
[V:3] z8 | 
[V:4] z2C6 | 
[V:1] c4B4 | 
[V:2] d8 | 
[V:3] z8 | 
[V:4] G,8 | 
[V:1] c8 | 
[V:2] c8- | 
[V:3] z8 | 
[V:4] C,8 | 
[V:1] z4G4 | 
[V:2] c8 | 
[V:3] z8 | 
[V:4] z8 | 
[V:1] A4B4 | 
[V:2] z4G4 | 
[V:3] z8 | 
[V:4] F,4G,2E,2- | 
[V:1] c4d4 | 
[V:2] A4B4 | 
[V:3] z8 | 
[V:4] E,2F,2D,4 | 
[V:1] e4d4 | 
[V:2] c4d4 | 
[V:3] z8 | 
[V:4] C,4B,,4 | 
[V:1] c2z2f4 | 
[V:2] e4d4 | 
[V:3] z8 | 
[V:4] z2C,2D,2B,,2 | 
[V:1] e4d4 | 
[V:2] c2z2f4 | 
[V:3] z8 | 
[V:4] C,4D,2B,,2 | 
[V:1] c4B4 | 
[V:2] e4d4 | 
[V:3] z8 | 
[V:4] C,2A,,2B,,4 | 
[V:1] c4d4 | 
[V:2] c4B4 | 
[V:3] z8 | 
[V:4] E,4D,4 | 
[V:1] G4F3E | 
[V:2] c4d4 | 
[V:3] z8 | 
[V:4] C,4z4 | 
[V:1] G2z2A4 | 
[V:2] G2z2F4 | 
[V:3] z8 | 
[V:4] E,4A,4 | 
[V:1] B4A2G2 | 
[V:2] G4c4- | 
[V:3] z8 | 
[V:4] G,4F,2E,2 | 
[V:1] c2B2A2G2 | 
[V:2] c4c4 | 
[V:3] z8 | 
[V:4] C,8 | 
[V:1] G4^F2E2 | 
[V:2] B2G2A4 | 
[V:3] z8 | 
[V:4] G,4D,4 | 
[V:1] G8 | 
[V:2] G8 | 
[V:3] z8 | 
[V:4] z4E,2C,2 | 
[V:1] z8 | 
[V:2] z8 | 
[V:3] z8 | 
[V:4] E,2F,2G,4 | 
[V:1] G4A4 | 
[V:2] c8 | 
[V:3] z8 | 
[V:4] C,4F,4 | 
[V:1] G4c4- | 
[V:2] c8 | 
[V:3] z8 | 
[V:4] E,4A,4 | 
[V:1] c4B4 | 
[V:2] d8 | 
[V:3] z8 | 
[V:4] G,8 | 
[V:1] c6A2 | 
[V:2] c8- | 
[V:3] z8 | 
[V:4] C,4F,4- | 
[V:1] A4G2F2 | 
[V:2] c8- | 
[V:3] z8 | 
[V:4] F,4E,4 | 
[V:1] E4z4 | 
[V:2] c8 | 
[V:3] z8 | 
[V:4] C,8 | 
[V:1] (3:2:2D8E4- | 
[V:2] (3:2:2B8c4 | 
[V:3] z8 | 
[V:4] (3:2:2G,8C,4 | 
[V:1] (3:2:2E4F8 | 
[V:2] (3:2:2G4A8 | 
[V:3] z8 | 
[V:4] (3:2:2E,4D,8 | 
[V:1] (3:2:2G8A4 | 
[V:2] (3:2:2G4c8 | 
[V:3] z8 | 
[V:4] (3:2:2E,4C,8 | 
[V:1] (3G4A4B4- | 
[V:2] (3B4c4d4 | 
[V:3] z8 | 
[V:4] (3E,4A,4G,4- | 
[V:1] (3B4c4d4 | 
[V:2] (3:2:2e8f4 | 
[V:3] z8 | 
[V:4] (3:2:4G,2F,2E,4D,4 | 
[V:1] (3e6d2e4- | 
[V:2] (3:2:2e4g8 | 
[V:3] z8 | 
[V:4] (3:2:2C,8C4- | 
[V:1] (3:2:5e4f2e2d2c2 | 
[V:2] (3a4f4g4 | 
[V:3] z8 | 
[V:4] (3C4D4B,4 | 
[V:1] (3:2:2c8B4 | 
[V:2] (3:2:2e4d8 | 
[V:3] z8 | 
[V:4] (3:2:2C4G,8 | 
[V:1] c8- | 
[V:2] c8 | 
[V:3] c8- | 
[V:4] C,8- | 
[V:1] c8 | 
[V:2] z8 | 
[V:3] c8- | 
[V:4] C,8 | 
[V:1] z8 | 
[V:2] A8 | 
[V:3] c8 | 
[V:4] F,8- | 
[V:1] A4A4 | 
[V:2] A8 | 
[V:3] c4d4 | 
[V:4] F,8 | 
[V:1] G4G2G2- | 
[V:2] B4B4 | 
[V:3] e8- | 
[V:4] E,8 | 
[V:1] G2G3FE2 | 
[V:2] c4c4 | 
[V:3] e8 | 
[V:4] C,8 | 
[V:1] D6A2 | 
[V:2] A4d4- | 
[V:3] f8- | 
[V:4] D,8- | 
[V:1] _B2A4GF | 
[V:2] d2c2A2B2 | 
[V:3] f8 | 
[V:4] D,8 | 
[V:1] E4z4 | 
[V:2] c8 | 
[V:3] g8- | 
[V:4] C,8- | 
[V:1] c8 | 
[V:2] e8 | 
[V:3] g8- | 
[V:4] C,8 | 
[V:1] B4d4- | 
[V:2] d6c2 | 
[V:3] g8- | 
[V:4] G,6A,2 | 
[V:1] d4c4 | 
[V:2] d4e4 | 
[V:3] g8 | 
[V:4] B,4C4 | 
[V:1] d2e3cc2- | 
[V:2] d2c2e3f | 
[V:3] z8 | 
[V:4] B,2C4A,2- | 
[V:1] c2A2B4 | 
[V:2] e2dcB3A | 
[V:3] z8 | 
[V:4] A,2F,2G,4 | 
[V:1] A4z4 | 
[V:2] c8 | 
[V:3] f8 | 
[V:4] F,8 | 
[V:1] G4c4 | 
[V:2] z4c4 | 
[V:3] e8- | 
[V:4] C,8- | 
[V:1] c8 | 
[V:2] g4g4- | 
[V:3] e8 | 
[V:4] C,8 | 
[V:1] B8 | 
[V:2] g4g4 | 
[V:3] d8 | 
[V:4] G,8 | 
[V:1] A4c4 | 
[V:2] f2e4a2- | 
[V:3] c8- | 
[V:4] A,8- | 
[V:1] c8 | 
[V:2] agg2e2^f2 | 
[V:3] c8 | 
[V:4] A,8 | 
[V:1] B8 | 
[V:2] g8 | 
[V:3] d8- | 
[V:4] G,8 | 
[V:1] A4d4 | 
[V:2] a4g4 | 
[V:3] d4=B4 | 
[V:4] F,4G,4 | 
[V:1] c2A2G2c2 | 
[V:2] e6g2- | 
[V:3] c4e4 | 
[V:4] A,3B,C4 | 
[V:1] d2B4A2 | 
[V:2] g4g4 | 
[V:3] d8 | 
[V:4] G,8 | 
[V:1] c8- | 
[V:2] z8 | 
[V:3] c8- | 
[V:4] C,8- | 
[V:1] c8 | 
[V:2] G2A2G2c2- | 
[V:3] c8 | 
[V:4] C,8 | 
[V:1] z8 | 
[V:2] c2_e2d2_e2 | 
[V:3] z8 | 
[V:4] C,4B,,2C,2- | 
[V:1] z8 | 
[V:2] f_edcB3A | 
[V:3] z8 | 
[V:4] C,2_E,2D,4 | 
[V:1] z8 | 
[V:2] c4G4- | 
[V:3] c8- | 
[V:4] C,8 | 
[V:1] z8 | 
[V:2] G4A2B2 | 
[V:3] c8 | 
[V:4] C,4F,4- | 
[V:1] z8 | 
[V:2] c8 | 
[V:3] A8 | 
[V:4] F,2_E,2F,4 | 
[V:1] z8 | 
[V:2] z8 | 
[V:3] _B8 | 
[V:4] G,8 | 
[V:1] z8 | 
[V:2] z8 | 
[V:3] A4d4- | 
[V:4] D,8 | 
[V:1] z8 | 
[V:2] z8 | 
[V:3] d2c2c4 | 
[V:4] _E,8 | 
[V:1] z8 | 
[V:2] z8 | 
[V:3] d4_B4 | 
[V:4] D,4G,4- | 
[V:1] z8 | 
[V:2] z8 | 
[V:3] A8 | 
[V:4] G,2^F,2F,4 | 
[V:1] z8 | 
[V:2] z8 | 
[V:3] G8 | 
[V:4] z4G,4 | 
[V:1] z8 | 
[V:2] z8 | 
[V:3] z4G4 | 
[V:4] A,4_B,4 | 
[V:1] z8 | 
[V:2] z8 | 
[V:3] A4_B4 | 
[V:4] C4G,4 | 
[V:1] z8 | 
[V:2] z8 | 
[V:3] c8 | 
[V:4] z4_A,4 | 
[V:1] z8 | 
[V:2] z8 | 
[V:3] _B4c4 | 
[V:4] G,4_A,4 | 
[V:1] z8 | 
[V:2] z8 | 
[V:3] d8 | 
[V:4] F,4G,4- | 
[V:1] z8 | 
[V:2] z8 | 
[V:3] _B4c4 | 
[V:4] G,4C,4- | 
[V:1] z8 | 
[V:2] z8 | 
[V:3] _e4d4 | 
[V:4] C,4_B,,4 | 
[V:1] z8 | 
[V:2] z8 | 
[V:3] _e4c4 | 
[V:4] C,4A,,4 | 
[V:1] z8 | 
[V:2] z8 | 
[V:3] d8 | 
[V:4] _B,,8 | 
[V:1] z8 | 
[V:2] z8 | 
[V:3] c4c4- | 
[V:4] C,4_E,4 | 
[V:1] z8 | 
[V:2] z8 | 
[V:3] c4=B4 | 
[V:4] D,8 | 
[V:1] G4A4 | 
[V:2] e6f2 | 
[V:3] c8- | 
[V:4] C,8 | 
[V:1] G4c4- | 
[V:2] g4a4 | 
[V:3] c8 | 
[V:4] z8 | 
[V:1] c4B4 | 
[V:2] f4g4- | 
[V:3] z8 | 
[V:4] A,4G,4 | 
[V:1] G8 | 
[V:2] g4e4 | 
[V:3] z8 | 
[V:4] C6B,2 | 
[V:1] A4B4 | 
[V:2] f4g4- | 
[V:3] z8 | 
[V:4] A,4G,4 | 
[V:1] G6F2 | 
[V:2] g4e4 | 
[V:3] z8 | 
[V:4] C,8 | 
[V:1] E4D4- | 
[V:2] c4d4 | 
[V:3] z8 | 
[V:4] C,4G,4- | 
[V:1] D4A4 | 
[V:2] B4c4 | 
[V:3] z8 | 
[V:4] G,4F,4 | 
[V:1] _B4G4- | 
[V:2] G8 | 
[V:3] z8 | 
[V:4] _E,8 | 
[V:1] G4^F2E2 | 
[V:2] A8 | 
[V:3] z8 | 
[V:4] D,8 | 
[V:1] G8 | 
[V:2] G8- | 
[V:3] z8 | 
[V:4] =E,6C,2 | 
[V:1] z8 | 
[V:2] G8 | 
[V:3] z8 | 
[V:4] C,8- | 
[V:1] [M:3/1]G12 | 
[V:2] z12 | 
[V:3] [M:3/1]c12- | 
[V:4] C,12 | 
[V:1] A8A4 | 
[V:2] z12 | 
[V:3] c6d6- | 
[V:4] F,12 | 
[V:1] F6D2F4 | 
[V:2] z12 | 
[V:3] d12 | 
[V:4] D,12 | 
[V:1] E4G8 | 
[V:2] z12 | 
[V:3] e12- | 
[V:4] C,12 | 
[V:1] C4z4c4 | 
[V:2] z12 | 
[V:3] e6f6- | 
[V:4] z12 | 
[V:1] d4c2B2A4 | 
[V:2] z12 | 
[V:3] f12 | 
[V:4] z12 | 
[V:1] G6A2B4 | 
[V:2] z12 | 
[V:3] e12- | 
[V:4] z12 | 
[V:1] c4B4d4- | 
[V:2] z12 | 
[V:3] e6d6- | 
[V:4] z12 | 
[V:1] d2c2A2c2B2A2 | 
[V:2] z12 | 
[V:3] d12 | 
[V:4] z12 | 
[V:1] c12 | 
[V:2] z12 | 
[V:3] c12- | 
[V:4] z12 | 
[V:1] z4z4A4 | 
[V:2] z12 | 
[V:3] c6d6- | 
[V:4] z12 | 
[V:1] B4A4G2F2 | 
[V:2] z12 | 
[V:3] d6d6 | 
[V:4] z12 | 
[V:1] E4F4G4- | 
[V:2] z12 | 
[V:3] A6_B6 | 
[V:4] z12 | 
[V:1] G4A4B4- | 
[V:2] z12 | 
[V:3] c6d6 | 
[V:4] z12 | 
[V:1] B4c4d4- | 
[V:2] z12 | 
[V:3] e6f6 | 
[V:4] z12 | 
[V:1] d4e4c4 | 
[V:2] z12 | 
[V:3] g6e6 | 
[V:4] z12 | 
[V:1] d2c2A2G2c4 | 
[V:2] z12 | 
[V:3] f6e6 | 
[V:4] F,6C,6 | 
[V:1] d4B6A2 | 
[V:2] z12 | 
[V:3] d12 | 
[V:4] G,12 | 
[V:1] c12 ||  
[V:2] z12 ||  
[V:3] c12 ||  
[V:4] C,12 ||  
[V:1]  [K:C] [K:clef=treble][M:4/2]E4F4 | 
[V:2]  [K:C] [K:clef=treble-8][M:4/2]G4A4 | 
[V:3]  [K:C] [K:clef=treble-8][M:4/2]c8- | 
[V:4]  [K:C] [K:clef=bass][M:4/2]C,4F,4 | 
[V:1] G4E4 | 
[V:2] G8 | 
[V:3] c8- | 
[V:4] E,4C,4 | 
[V:1] C2F4G2 | 
[V:2] A8 | 
[V:3] c8- | 
[V:4] F,6E,2 | 
[V:1] E4G4 | 
[V:2] G4c4 | 
[V:3] c8 | 
[V:4] C,8 | 
[V:1] G4A4 | 
[V:2] B3cA4 | 
[V:3] d8- | 
[V:4] G,4F,4 | 
[V:1] G4F2A2 | 
[V:2] B4A2z2 | 
[V:3] d8 | 
[V:4] G,4D,4 | 
[V:1] z2c2d2e2- | 
[V:2] c4B2A2- | 
[V:3] e8- | 
[V:4] A,4G,2C2- | 
[V:1] edc2B4 | 
[V:2] A4B4 | 
[V:3] e8 | 
[V:4] CB,A,2G,4 | 
[V:1] A2c2B2A2- | 
[V:2] c4d2A2- | 
[V:3] f6e2 | 
[V:4] F,2A,2B,2C2 | 
[V:1] AGG4F2 | 
[V:2] A2c2B2A2 | 
[V:3] d2c2d4 | 
[V:4] F,2E,2D,4 | 
[V:1] G4G4 | 
[V:2] c8 | 
[V:3] e8 | 
[V:4] C,8- | 
[V:1] c4c4 | 
[V:2] c8 | 
[V:3] z8 | 
[V:4] C,8 | 
[V:1] B8 | 
[V:2] G6A2 | 
[V:3] g8- | 
[V:4] z8 | 
[V:1] z4G4 | 
[V:2] B4c4 | 
[V:3] g8 | 
[V:4] G,4E,4 | 
[V:1] A4B4 | 
[V:2] z4d4 | 
[V:3] f8 | 
[V:4] D,8 | 
[V:1] c4c4 | 
[V:2] e2f2g4 | 
[V:3] e8 | 
[V:4] C,8 | 
[V:1] d4B4 | 
[V:2] g4g4- | 
[V:3] d8- | 
[V:4] G,8- | 
[V:1] B4G4 | 
[V:2] g2f2d4 | 
[V:3] d8 | 
[V:4] G,8 | 
[V:1] z2G2A4 | 
[V:2] e4f4 | 
[V:3] c8- | 
[V:4] C,4F,3E, | 
[V:1] G4c2c2- | 
[V:2] e4z4 | 
[V:3] c8 | 
[V:4] C,8- | 
[V:1] cBA2G4 | 
[V:2] c2c2c4 | 
[V:3] e8 | 
[V:4] C,8 | 
[V:1] z4F4 | 
[V:2] f4a3g | 
[V:3] d8 | 
[V:4] D,8 | 
[V:1] G4A4- | 
[V:2] e4c4 | 
[V:3] c8 | 
[V:4] E,4F,4- | 
[V:1] A2c2B2A2 | 
[V:2] f8 | 
[V:3] d8 | 
[V:4] F,2E,2D,4 | 
[V:1] c6B2 | 
[V:2] g8 | 
[V:3] e8- | 
[V:4] C,8- | 
[V:1] !fermata!G8 | 
[V:2] !fermata!c8 | 
[V:3] !fermata!e8 | 
[V:4] !fermata!C,8 | 
[V:1] G4c4- | 
[V:2] z8 | 
[V:3] e8- | 
[V:4] C8 | 
[V:1] c2B2A4 | 
[V:2] (3c4c4c4 | 
[V:3] e8 | 
[V:4] A,8 | 
[V:1] G6F2 | 
[V:2] (3:2:2G8G4 | 
[V:3] d8 | 
[V:4] _B,8 | 
[V:1] A4A4 | 
[V:2] (3:2:2c4c8 | 
[V:3] e8- | 
[V:4] A,8 | 
[V:1] B8 | 
[V:2] (3B4B6A2 | 
[V:3] e8 | 
[V:4] G,8 | 
[V:1] A8 | 
[V:2] (3c8c2d2 | 
[V:3] f8 | 
[V:4] F,8 | 
[V:1] G4c4- | 
[V:2] (3:2:2e4g8 | 
[V:3] e4c4 | 
[V:4] C8 | 
[V:1] c2B2B2A2 | 
[V:2] g8 | 
[V:3] d8 | 
[V:4] G,8 | 
[V:1] c2z2B4 | 
[V:2] z8 | 
[V:3] c4d2e2- | 
[V:4] z8 | 
[V:1] c2d4e2- | 
[V:2] z8 | 
[V:3] e2f2g4 | 
[V:4] z8 | 
[V:1] e2f2e2d2- | 
[V:2] z8 | 
[V:3] c2d2c2f2- | 
[V:4] z8 | 
[V:1] dcc4B2 | 
[V:2] z8 | 
[V:3] f2e2d4 | 
[V:4] z8 | 
[V:1] c8- | 
[V:2] z8 | 
[V:3] c8- | 
[V:4] C,8- | 
[V:1] c8 | 
[V:2] e8 | 
[V:3] c8 | 
[V:4] C,8 | 
[V:1] z8 | 
[V:2] d4f4 | 
[V:3] d8 | 
[V:4] B,,8 | 
[V:1] z8 | 
[V:2] e4g4- | 
[V:3] c8 | 
[V:4] C,6D,2 | 
[V:1] z8 | 
[V:2] g4a4 | 
[V:3] =B4A4- | 
[V:4] E,4F,4 | 
[V:1] z8 | 
[V:2] f4e2g2- | 
[V:3] A4G4- | 
[V:4] D,4E,4 | 
[V:1] z8 | 
[V:2] g2f2e4 | 
[V:3] G4c4- | 
[V:4] C,8 | 
[V:1] z8 | 
[V:2] d6c2 | 
[V:3] c4=B4 | 
[V:4] G,8 | 
[V:1] z8 | 
[V:2] e8 | 
[V:3] c8 | 
[V:4] C,8- | 
[V:1] c8 | 
[V:2] c8 | 
[V:3] z8 | 
[V:4] C,8 | 
[V:1] (3:2:2c8A4 | 
[V:2] z8 | 
[V:3] (3:2:2c8d4- | 
[V:4] z8 | 
[V:1] (3:2:2B8c4- | 
[V:2] z8 | 
[V:3] (3:2:2d4e8 | 
[V:4] z8 | 
[V:1] (3c4d4c4 | 
[V:2] z8 | 
[V:3] (3:2:2f8e4 | 
[V:4] z8 | 
[V:1] (3:2:2d4e8 | 
[V:2] z8 | 
[V:3] (3f4g6f2 | 
[V:4] z8 | 
[V:1] (3f4d4e4 | 
[V:2] z8 | 
[V:3] (3:2:2d8c4- | 
[V:4] z8 | 
[V:1] (3:2:5c4d2c2B2A2 | 
[V:2] z8 | 
[V:3] (3:2:2c4f8 | 
[V:4] z8 | 
[V:1] (3G4c4d4 | 
[V:2] z8 | 
[V:3] (3:2:2e8d4- | 
[V:4] z8 | 
[V:1] (3:2:4A4B4A2B2 | 
[V:2] z8 | 
[V:3] d8 | 
[V:4] z8 | 
[V:1] c8- | 
[V:2] z8 | 
[V:3] c8- | 
[V:4] z8 | 
[V:1] c8 | 
[V:2] c8 | 
[V:3] c8 | 
[V:4] z8 | 
[V:1] z8 | 
[V:2] (3:2:2c8A4 | 
[V:3] z8 | 
[V:4] (3:2:2C,8D,4- | 
[V:1] z8 | 
[V:2] (3:2:2B8c4- | 
[V:3] z8 | 
[V:4] (3:2:2D,4E,8 | 
[V:1] z8 | 
[V:2] (3c4d4c4 | 
[V:3] z8 | 
[V:4] (3:2:2F,8E,4 | 
[V:1] z8 | 
[V:2] (3:2:2d4e8 | 
[V:3] z8 | 
[V:4] (3F,4G,6F,2 | 
[V:1] z8 | 
[V:2] (3f4d4e4 | 
[V:3] z8 | 
[V:4] (3:2:2D,8C,4- | 
[V:1] z8 | 
[V:2] (3:2:5c4d2c2B2A2 | 
[V:3] z8 | 
[V:4] (3:2:2C,4F,8 | 
[V:1] z8 | 
[V:2] (3G4c4d4 | 
[V:3] z8 | 
[V:4] (3:2:2E,8D,4- | 
[V:1] z8 | 
[V:2] (3:2:4A4B4A2B2 | 
[V:3] z8 | 
[V:4] D,8 | 
[V:1] z8 | 
[V:2] c8 | 
[V:3] z8 | 
[V:4] C,8 | 
[V:1] z8 | 
[V:2] z8 | 
[V:3] z8 | 
[V:4] z8 | 
[V:1] !fermata!c8 | 
[V:2] !fermata!g8 | 
[V:3] !fermata!e8 | 
[V:4] !fermata![C,8C8] | 
[V:1] !fermata!B8 | 
[V:2] !fermata!g8 | 
[V:3] !fermata!d8 | 
[V:4] !fermata!G,8 | 
[V:1] !fermata!c8 |]  
[V:2] !fermata![e8g8] |]  
[V:3] !fermata!c8 |]  
[V:4] !fermata!C,8 |]  



